X:148
T:The Killavil
R:jig
M:6/8
L:1/8
K:Gmaj
BEE BEE|Bdf edB|BAF FEF|DFA BAF|BEE BEE|Bdf edB|BAB dAF|FED E3:||
e2f gfe|faf edB|BAF FEF|DFA dBA|e2f gfe|faf edB|BAB dAF|FED E3:||

